assets/icons/desktop/_.svg

<?xml version="1.0" encoding="UTF-8" standalone="no"?>
<svg viewBox="0 0 24 24" height="24" id="svg7384" version="1.1" width="24" sodipodi:docname="_.svg" inkscape:version="1.1 (ce6663b3b7, 2021-05-25)"
   xmlns:inkscape="http://www.inkscape.org/namespaces/inkscape"
   xmlns:sodipodi="http://sodipodi.sourceforge.net/DTD/sodipodi-0.dtd"
   xmlns="http://www.w3.org/2000/svg"
   xmlns:svg="http://www.w3.org/2000/svg"
   xmlns:rdf="http://www.w3.org/1999/02/22-rdf-syntax-ns#"
   xmlns:cc="http://creativecommons.org/ns#"
   xmlns:dc="http://purl.org/dc/elements/1.1/">
   <sodipodi:namedview id="namedview21" pagecolor="#ffffff" bordercolor="#666666" borderopacity="1.0" inkscape:pageshadow="2" inkscape:pageopacity="0.0" inkscape:pagecheckerboard="0" showgrid="true" inkscape:snap-page="true" inkscape:zoom="27.999996" inkscape:cx="12.732145" inkscape:cy="12.053573" inkscape:window-width="1920" inkscape:window-height="1016" inkscape:window-x="0" inkscape:window-y="27" inkscape:window-maximized="1" inkscape:current-layer="svg7384">
      <inkscape:grid type="xygrid" id="grid837" />
      <inkscape:grid type="xygrid" id="grid839" dotted="true" spacingx="0.5" empspacing="10" spacingy="0.5" />
   </sodipodi:namedview>
   <metadata id="metadata20854">
      <rdf:RDF>
         <cc:Work rdf:about="">
            <dc:format>image/svg+xml</dc:format>
            <dc:type rdf:resource="http://purl.org/dc/dcmitype/StillImage" />
         </cc:Work>
      </rdf:RDF>
   </metadata>
   <defs id="defs7386">
      <linearGradient id="linearGradient5606" inkscape:swatch="solid">
         <stop id="stop5608" offset="0" style="stop-color:#000000;stop-opacity:1;" />
      </linearGradient>
      <linearGradient id="linearGradient4526" inkscape:swatch="solid">
         <stop id="stop4528" offset="0" style="stop-color:#ffffff;stop-opacity:1;" />
      </linearGradient>
      <linearGradient id="linearGradient3600-4" inkscape:swatch="gradient">
         <stop id="stop3602-7" offset="0" style="stop-color:#f4f4f4;stop-opacity:1" />
         <stop id="stop3604-6" offset="1" style="stop-color:#dbdbdb;stop-opacity:1" />
      </linearGradient>
   </defs>
   <g id="layer9" label="status" style="display:inline;stroke-width:0.8" transform="matrix(1.25,0,0,1.25,-739.25025,385.75)" />
   <g id="layer2" transform="matrix(1.25,0,0,1.25,-438,-73.000001)" style="stroke-width:0.8" />
   <g id="layer4" transform="matrix(1.25,0,0,1.25,-438,-73.000001)" style="stroke-width:0.8" />
   <g id="g1812" style="display:inline;stroke-width:0.8" transform="matrix(1.25,0,0,1.25,-438,-73.000001)" />
   <g id="g6217" transform="matrix(1.25,0,0,1.25,-438,-73.000001)" style="stroke-width:0.8" />
   <g id="layer3" style="display:inline;stroke-width:0.8" transform="matrix(1.25,0,0,1.25,-438,-73.000001)" />
   <g id="g1833" style="display:inline;stroke-width:0.8" transform="matrix(1.25,0,0,1.25,-438,-73.000001)" />
   <g id="layer1" transform="matrix(1.25,0,0,1.25,-438,-73.000001)" style="stroke-width:0.8" />
   <path id="path874" style="color:#000000;fill:#808080;-inkscape-stroke:none" d="M 5.4550781 4 C 4.4864972 4.0089807 3.7372591 4.0732694 3.1171875 4.4453125 C 2.7038064 4.6933412 2.3972496 5.10122 2.2285156 5.6074219 C 2.0597817 6.1136238 2 6.722223 2 7.5 L 2 16.5 C 2 17.277777 2.059782 17.886376 2.2285156 18.392578 C 2.3972496 18.89878 2.7038064 19.306659 3.1171875 19.554688 C 3.9439497 20.050746 5.0000015 20 6.5 20 L 17.5 20 C 18.999998 20 20.05605 20.05074 20.882812 19.554688 C 21.296194 19.306659 21.60275 18.89878 21.771484 18.392578 C 21.940218 17.886376 22 17.277777 22 16.5 L 22 7.5 C 22 6.722223 21.94022 6.1136238 21.771484 5.6074219 C 21.60275 5.10122 21.296194 4.6933412 20.882812 4.4453125 C 20.056051 3.9492552 18.999998 4 17.5 4 L 6.5 4 C 6.1250004 4 5.7779384 3.9970064 5.4550781 4 z M 7 5 L 17.5 5 C 18.999998 5 19.943951 5.050746 20.367188 5.3046875 C 20.578806 5.4316585 20.70975 5.5862809 20.822266 5.9238281 C 20.934781 6.2613754 21 6.7777785 21 7.5 L 21 16.5 C 21 17.222221 20.93478 17.738625 20.822266 18.076172 C 20.70975 18.413719 20.578807 18.568342 20.367188 18.695312 C 19.943952 18.949254 18.999999 19 17.5 19 L 7 19 L 7 5 z " />
</svg>

<svg height="24" width="24" xmlns="http://www.w3.org/2000/svg"><path style="color:#000;fill:gray;-inkscape-stroke:none" d="M5.455 4c-.969.009-1.718.073-2.338.445-.413.248-.72.656-.888 1.162C2.059 6.114 2 6.722 2 7.5v9c0 .778.06 1.386.229 1.893.168.506.475.914.888 1.162C3.944 20.05 5 20 6.5 20h11c1.5 0 2.556.05 3.383-.445.413-.248.72-.656.888-1.162.17-.507.229-1.115.229-1.893v-9c0-.778-.06-1.386-.229-1.893-.168-.506-.475-.914-.888-1.162C20.056 3.95 19 4 17.5 4h-11c-.375 0-.722-.003-1.045 0zM7 5h10.5c1.5 0 2.444.05 2.867.305.212.127.343.281.455.619.113.337.178.854.178 1.576v9c0 .722-.065 1.239-.178 1.576-.112.338-.243.492-.455.62C19.944 18.948 19 19 17.5 19H7V5z"/></svg>
